X:1     %Music
T:Guise O' Tough
B:The Scottish Folksinger" 1973, Norman Buchan & Peter Hall 
N:taken from "Folk Songs of the North East" by Gavin Greig. 
F:http://www.folkinfo.org/songs
M:4/4     %Meter
L:1/8     %
K:F
F3/2F/ FF F2 F2 |AG F/A3/2 c4 |
w:I gaed up to Al-ford For to get a fee, 
dd dd c/c/ c2 A/A/ |GA GF D3 
w:I fell in wi' Jam-ie Broon, And wi' him I did a-gree. 
C/C/ |F2 F2 F2 FF |AG FA c4 |
w:Turn a hi dum do, Turn a hi--dum_ day 
f2 d2 c/d3/2 FA |G2 F2 F4 |]
w:Hi dum did-dle Dum a dan day-o 